X: 5
T: Frank's
C: John McCusker
I: RJ R-168
M: C|
L: 1/8
R: reel
K: A
"^A"[| "A"AcBA "D"F2AF | "A"EFAB cABc | "D"d3f "A"ecAe |\
[1 "D"faec "E7"(3Bcd cB :|[2 "E7"BAGB "A"A2 (3EFG ||
"^B"[| "A"AcBA "D"F2AF | "A"EFAB cABc |\
[1 "Bm"d2df "A/C#"ecAe | "D"faec "E7"(3Bcd cB :|\
[2 "D"df (3fff "A"ecAc | "E7"BAGB "A"Aefg |]
"^C"[| "A"aAAg AAfA | ef-fe cABc |\
[1 "Bm7"d3f "A/C#"ecAc | "D"Bcde "E7"fe (3efg :|\
[2 "D"df (3fff "A"ecAc | "E7"BAGB "A"Aefg :|
[3 "Bm7"d3f "A/C#"eAce | "D"faec "E7"(3Bcd cB "^A2"[|\
"A"AcBA "D"F3A | "A/C#"EFAB "A"cABc |\
"D"d3f "A"ecAc | "E7"BAGB "A"A4 |]


